X:1029
T:Jock Halcro's Waltz
C:Joe Buchanan's Scottish Tome - Page 618.2
I:618 2
Z:Carl Allison
R:Waltz
L:1/4
M:3/4
K:D
F/E/ | D3- | D FA | d3- | d e f | e d c | d F A | B3- | B G F | 
E3- | E F G | c3- | c d B | A G F | G B, D | F3- | F G E | 
D3- | D F A | d3- | d e f | e d c | d A F | B3- | B G F | 
E3- | E F G | c3- | c d B | A a f | g B c | d3- | d3 :|
f/g/ | a3 | a3 | a f b | a f d | A c e | A c e | A c e | b f g | 
a3 | a3 | a f b | a f d | A c e | a B c | d3- | d2 f/g/ | 
a3 | a3 | a f b | a f d | A c e | A c e | A c e | b a f | 
D3- | D F A | B3- | B c d | A a f | g B c | d3- | d3 :| 

